X:424
T: Ich wei ein' schner Garte (5-20), S. 39
N: P0694
O: Lothringen
S: MERKELBACH-PINCK, Angelika: Verklingende Weisen, Bd 5, Kassel 1962]
R: geistliches, religises Lied]
M: 3/4
L: 1/8
K: F
FA | c2cdcB | A3G
A2 | B2A2BA | G4
AB | c2A2c2 | B2G2
B2 | AGF2AA | G4
FA | c2c2G2 | F4

@@@ Tune index: 7974
